X:64
T:Flax in Bloom, The
R:reel
Z:id:hn-reel-64
M:C|
K:D
D2 (3FED FAAf|(3gfe fd edBd|A2FA ABdf|(3gfe fd edBd|
D2 (3FED FAAf|(3gfe fd edBd|A2FA ABde|1 f2eg fdd2:|2 f2eg fdde||
|:f2df ~e3c|dcdA BAFA|DFAD FAdf|(3gfe fd edBd|
f2df ~e2ce|dcdA BAFA|DFAB defg|1 afeg fdde:|2 afeg fdd2||
<end>
<start>
